images/logo-footer.svg

<?xml version="1.0" encoding="UTF-8"?>
<svg width="136px" height="54px" viewBox="0 0 136 54" version="1.1" xmlns="http://www.w3.org/2000/svg" xmlns:xlink="http://www.w3.org/1999/xlink">
    <title>C821926D-278F-43D8-9AEA-86DED77E1BA7@1x</title>
    <g id="Components" stroke="none" stroke-width="1" fill="none" fill-rule="evenodd">
        <g id="footer" transform="translate(-24.000000, -50.000000)">
            <g id="logo-footer" transform="translate(24.000000, 50.000000)">
                <g id="logo">
                    <path d="M18.6854744,50.4911058 L18.7792833,50.8821911 C18.8771468,51.344785 18.8664573,51.7887645 18.769884,52.1883276 C18.6744164,52.575727 18.499884,52.9203686 18.2647167,53.2005051 C18.0380273,53.4719795 17.7556792,53.6839249 17.4348123,53.8219659 C17.1240819,53.9544778 16.7785188,54.0169556 16.408628,53.9959454 C16.0475836,53.9749352 15.6909625,53.8842594 15.3524027,53.7371877 C15.0184505,53.5932491 14.6999795,53.3943891 14.4073106,53.1542457 C14.1186962,52.916314 13.8544096,52.6330444 13.6321433,52.3202867 C13.4076655,52.0047645 13.2215222,51.6538567 13.0934334,51.2786212 C13.0844027,51.2555836 13.077215,51.2329147 13.0691058,51.2091399 C13.0622867,51.1870239 13.055099,51.1643549 13.0490171,51.1400273 C13.0410922,51.1171741 13.0348259,51.0941365 13.0285597,51.0723891 C13.0222935,51.04843 13.0162116,51.0255768 13.0101297,51.004198 L13.0101297,51.004198 L13.0042321,50.992587 L13.0005461,50.9824505 L12.9940956,50.9721297 L12.9904096,50.9614403 C13.1116792,51.0320273 13.2344232,51.1081433 13.3525597,51.190157 C13.4710648,51.2732765 13.5856997,51.3624778 13.6907509,51.460157 C13.7959863,51.5593106 13.8925597,51.6662048 13.9729147,51.7828669 C14.0527167,51.901372 14.1186962,52.0294608 14.1658771,52.1698976 L14.1658771,52.1698976 L14.1830171,52.2275836 C14.1887304,52.2469352 14.1929693,52.2657338 14.1977611,52.2843481 L14.1977611,52.2843481 L14.2110307,52.340744 C14.2152696,52.3586212 14.2193242,52.3776041 14.2230102,52.3978771 C14.3748737,52.5283618 14.5307918,52.6558976 14.6894744,52.7734812 C14.8477884,52.8921706 15.0096041,53.0001706 15.1765802,53.0943481 C15.3431877,53.1896314 15.5153242,53.2672218 15.6913311,53.3245392 C15.8701024,53.3816724 16.0542184,53.4172423 16.2446007,53.4247986 C16.4394061,53.4325392 16.5944027,53.3999181 16.725256,53.3392833 C16.8561092,53.2766212 16.9613447,53.184471 17.0536792,53.0735222 C17.1469352,52.961099 17.2261843,52.8287713 17.3083823,52.6877816 C17.3922389,52.5462389 17.4762799,52.3936382 17.5765392,52.2454608 C17.5649283,52.2194744 17.5549761,52.1947782 17.5435495,52.1686075 C17.5326758,52.141884 17.5232765,52.1158976 17.5129556,52.0889898 C17.5039249,52.0626348 17.4943413,52.0364642 17.4854949,52.0090034 C17.4781229,51.981727 17.4703823,51.9546348 17.4633788,51.9260683 C17.4244915,51.7705188 17.449372,51.6260273 17.5151672,51.4918567 C17.5822526,51.3569488 17.6920956,51.2316246 17.821843,51.1133038 C17.9550922,50.9964573 18.1078771,50.8844027 18.2588191,50.7823003 C18.412157,50.6774334 18.5621775,50.5808601 18.6854744,50.4911058 L18.6854744,50.4911058 Z M24.1433447,32.8054608 C23.3791982,33.8977981 22.6784093,35.0682785 22.0549348,36.30931 C21.417687,37.576636 20.8588555,38.91655 20.3922138,40.3146085 C19.9171244,41.743776 19.5386323,43.2331249 19.2688579,44.7671005 C18.9944924,46.3316297 18.8360068,47.940045 18.8040526,49.5767918 C18.4139908,49.0757129 18.0569851,48.5413027 17.7354229,47.976339 C17.4153298,47.4123011 17.1314148,46.8188207 16.8871671,46.1984901 C16.6438375,45.5801965 16.4412772,44.9356082 16.2804043,44.2680584 C16.1208168,43.604027 16.0031005,42.917034 15.9311117,42.2122644 C15.8835476,41.7419243 15.8569191,41.2702879 15.8514098,40.8019846 C15.8447985,40.3359034 15.8589392,39.8716739 15.8936481,39.4126293 C15.9279897,38.9545106 15.9795939,38.5010211 16.0499299,38.0508649 C16.1208168,37.604412 16.2085991,37.1624034 16.3147459,36.7266906 L16.3147459,36.7266906 Z M7.31948805,37.7495017 L10.7209352,37.8578703 C10.8414676,38.1636246 10.9599727,38.4791468 11.0729488,38.8040683 C11.1857406,39.1293584 11.2931877,39.4658908 11.3951058,39.810901 C11.4973925,40.1562799 11.5950717,40.5105051 11.686116,40.8737611 C11.7767918,41.2373857 11.8606485,41.6094881 11.939529,41.9902526 C12.0552696,42.5573447 12.151843,43.1233311 12.2318294,43.6893174 C12.3131058,44.2549352 12.3748464,44.8166826 12.4185256,45.3745597 C12.4642321,45.9309625 12.4911399,46.4825734 12.5020137,47.0238635 C12.5119659,47.5651536 12.5055154,48.0975973 12.4819249,48.6164027 C12.159215,47.4269283 11.7970648,46.2958771 11.4045051,45.2295154 C11.0152628,44.1731058 10.5961638,43.1810171 10.1542116,42.2637543 C9.71502389,41.3542321 9.25501024,40.5178771 8.77675085,39.7600341 C8.30531058,39.0108532 7.81691468,38.3379727 7.31948805,37.7495017 L7.31948805,37.7495017 Z M4.76329213,32.2525597 L6.2662116,36.6757679 C5.89132229,36.3352349 5.5141915,36.0402923 5.1368739,35.7935454 C4.7619846,35.550148 4.38746887,35.3515967 4.01426068,35.2036602 C3.64460151,35.0566541 3.27830458,34.9580298 2.9131284,34.9092759 C2.5524352,34.8597776 2.19510423,34.8597776 1.84300341,34.9092759 C1.96890047,34.611356 2.10170879,34.3575379 2.24198875,34.1360984 C2.38170833,33.9129841 2.53132783,33.7226205 2.6897265,33.552354 C2.84700443,33.3822735 3.0156766,33.232104 3.19574301,33.0904944 C3.37730375,32.9485126 3.57044553,32.8141602 3.77722304,32.6779469 C3.81402085,32.6526396 3.85268656,32.629193 3.88985795,32.6057465 C3.92740291,32.5837886 3.96532146,32.5616447 4.00324001,32.5406172 C4.04078498,32.5195898 4.07889032,32.4996788 4.11643529,32.4812565 C4.15603496,32.4619038 4.19395351,32.4447841 4.23261922,32.4274784 C4.27651508,32.4084978 4.31872982,32.3898895 4.36262568,32.3725837 C4.40764228,32.3565805 4.45172493,32.3413216 4.49524721,32.3258767 C4.54026381,32.3117343 4.58397288,32.2983363 4.62786874,32.286613 C4.67437967,32.2737733 4.71808874,32.2629804 4.76329213,32.2525597 L4.76329213,32.2525597 Z M5.52901024,32.2525597 C5.92452476,32.2683238 6.32384579,32.3732365 6.7213542,32.5616807 C7.12285038,32.7528429 7.52307772,33.028805 7.91442321,33.3863054 C8.30921268,33.745799 8.69657039,34.1879181 9.06852081,34.7048714 C9.44300889,35.2261733 9.80154589,35.8243025 10.1365188,36.4914676 L10.1365188,36.4914676 L6.95935171,36.4449001 Z M0,6.35227986 C0.169924915,7.46877133 0.362887372,8.60682594 0.579071672,9.76183618 C0.795440273,10.9220068 1.03503072,12.1007918 1.29950171,13.2928464 C1.5650785,14.4911672 1.85369283,15.7042321 2.16589761,16.9276177 C2.4825256,18.1598498 2.82384983,19.4020341 3.1880273,20.650116 C3.46779522,21.6068191 3.75659386,22.5432491 4.05,23.4612491 C4.34727645,24.3853311 4.65192491,25.2876655 4.96191809,26.1693584 C5.27541297,27.0569488 5.59480546,27.923529 5.91991126,28.7667031 C6.24722867,29.6161433 6.58081229,30.4423618 6.91752901,31.2427782 C6.76935154,31.1725597 6.62135836,31.1122935 6.47318089,31.0645597 C6.32537201,31.016273 6.17608874,30.9807031 6.02975427,30.9561911 C5.88305119,30.9322321 5.73561092,30.9195154 5.58946075,30.9176724 C5.44386348,30.9176724 5.29900341,30.9285461 5.15617065,30.951215 C4.82332423,29.9458567 4.49748123,28.9016109 4.18269625,27.8206894 C3.86827986,26.7475085 3.5632628,25.6369147 3.26985666,24.495727 C2.97829352,23.3608055 2.69612969,22.1943686 2.4277884,20.996785 C2.1590785,19.8067577 1.90326962,18.5879795 1.66165188,17.3426621 C1.47606143,16.392041 1.30337201,15.4491604 1.14137201,14.5116246 C0.980293515,13.5781433 0.830457338,12.6511126 0.691863481,11.7336655 C0.554744027,10.8169556 0.429051195,9.90927645 0.312757679,9.01136519 C0.197569966,8.11492833 0.093440273,7.22844369 0,6.35227986 Z M31.7357554,24.3282782 C32.1631286,24.3234987 32.5805286,24.345558 33.0034692,24.401993 C33.4223467,24.4569575 33.8432557,24.5481359 34.2798635,24.6801241 C33.5292823,24.9731453 32.7947692,25.3137777 32.0778017,25.7016539 C31.3488293,26.0954125 30.6374025,26.5391722 29.9477691,27.0272344 C29.2448381,27.5239364 28.5648086,28.0688013 27.9082348,28.6581525 C27.2407643,29.2581656 26.5991503,29.9039518 25.9863481,30.5938567 L25.9863481,30.5938567 L26.5947178,25.1959443 C26.7779305,25.1341782 26.9628054,25.0753534 27.1487885,25.0202051 C27.3340328,24.9657922 27.5213087,24.9141366 27.708954,24.8672606 C27.8962299,24.8200169 28.084614,24.7762659 28.2744755,24.7369268 C28.4635984,24.6975878 28.6532752,24.6617414 28.8442449,24.6308583 L28.8442449,24.6308583 L28.8686241,24.6260788 L28.8931879,24.6229538 L28.9171976,24.6185419 L28.9432389,24.6150492 C29.4587094,24.5350842 29.9431519,24.4650459 30.4067244,24.4144933 C30.866049,24.3648599 31.3059812,24.3328739 31.7357554,24.3282782 Z" id="Combined-Shape" fill="#202024"></path>
                    <path d="M16.9556314,34.6484642 C16.9673623,34.6161788 16.9807428,34.5840779 16.9935734,34.5514236 C17.0060374,34.5204296 17.0196012,34.4881443 17.0327984,34.45549 C17.045629,34.4235736 17.0593761,34.3925796 17.0738564,34.3595563 C17.0857705,34.327271 17.0997009,34.2964615 17.112165,34.2634382 C17.4809536,32.9974831 18.0728118,31.913064 18.7475191,30.7581705 C19.4088459,29.6289208 20.1458734,28.4391592 20.8271793,26.9603052 C21.4894226,25.5201936 22.0933782,23.8138662 22.5158721,21.636726 C22.9248023,19.5304291 23.159786,16.997781 23.1082802,13.8677614 C23.0875679,12.5186023 23.0582408,11.2126134 23.0100343,9.9509015 C22.962561,8.70800737 22.8954752,7.506623 22.7977792,6.3493312 C22.7022827,5.20606047 22.5754429,4.10282358 22.4071785,3.03962055 C22.2416635,1.98951614 22.0334408,0.976124807 21.7746289,0 C22.0576357,0.735552751 22.3270787,1.4923216 22.5794753,2.26864614 C22.8355379,3.05032084 23.074554,3.85099777 23.2968903,4.669939 C23.5203264,5.49589076 23.7276325,6.34342759 23.9162426,7.20793729 C24.1043029,8.08111792 24.2776995,8.97422323 24.4272679,9.88725322 C24.6268757,11.0930653 24.8096204,12.4269119 24.9516737,13.8768013 C25.0964764,15.3510431 25.1998545,16.9536884 25.2355969,18.6773577 C25.271706,20.4386624 25.2379798,22.3346433 25.106191,24.361057 C24.9709196,26.4444774 24.7286042,28.6788088 24.3501009,31.0625753 L24.3462517,31.0658961 L24.3458851,31.0725377 L16.9556314,34.6484642" id="Fill-12" fill="#494C4F"></path>
                </g>
                <path d="M70.6776422,28.3822526 C73.7296928,28.3822526 76.2730375,30.9261008 76.2730375,34.9963689 C76.2730375,39.0664522 73.7296928,41.6103004 70.6776422,41.6103004 C68.3887429,41.6103004 67.3713311,40.3383763 67.3713311,40.3383763 L67.1170705,40.3383763 L67.1170705,46.1893751 L66.8626252,46.443686 L63.8105746,46.443686 L63.556314,46.1893751 L63.556314,28.8910592 L63.8105746,28.6365635 L66.6083646,28.6365635 L66.8626252,28.8910592 L67.1170705,29.6541767 L67.3713311,29.6541767 C67.3713311,29.6541767 68.3887429,28.3822526 70.6776422,28.3822526 Z M89.8798452,28.7508532 L90.1348351,29.0040294 L93.1934168,37.6083412 L93.4482214,37.6083412 L96.5068031,29.0040294 L96.7616078,28.7508532 L99.0557756,28.7508532 L99.3105802,29.0040294 L99.3105802,31.5346877 L95.2324095,41.657321 C94.2130057,44.1881632 93.1934168,45.7064846 89.6250406,45.7064846 L88.350647,45.7064846 L88.0956572,45.4534924 L88.0956572,42.922834 L88.350647,42.6696579 L89.6250406,42.6696579 C90.8994342,42.6696579 91.154424,42.4166656 91.4092287,41.657321 L91.4092287,41.4043287 L87.331058,31.5346877 L87.331058,29.0040294 L87.5860478,28.7508532 L89.8798452,28.7508532 Z M54.4556775,23.4061433 C59.2855825,23.4061433 61.3191586,25.686745 61.3191586,28.7277313 L61.0650308,28.9812542 L58.0145743,28.9812542 L57.7602618,28.7277313 C57.7602618,27.2073302 56.9976939,26.4469455 54.2015497,26.4469455 C51.9136611,26.4469455 51.1510932,27.2073302 51.1510932,28.2208696 C51.1510932,29.7414548 52.1677889,30.2483165 55.7266857,30.7551783 C59.2855825,31.2618559 62.0819113,32.7824411 62.0819113,36.3302892 C62.0819113,39.1177526 60.0481504,41.6518771 54.7098053,41.6518771 C49.6257726,41.6518771 47.337884,39.1177526 47.337884,35.8234274 L47.5921964,35.5700886 L50.642653,35.5700886 L50.8967807,35.8234274 C50.8967807,37.5973515 51.9136611,38.6108908 54.9641177,38.6108908 C57.2520063,38.6108908 58.5230145,37.8506903 58.5230145,36.3302892 C58.5230145,34.5563651 57.5061341,34.0495034 53.9472373,33.5426417 C50.3883405,33.0357799 47.5921964,31.7689017 47.5921964,28.2208696 C47.5921964,25.686745 49.6257726,23.4061433 54.4556775,23.4061433 Z M118.8466,28.3822526 C122.901085,28.3822526 124.928328,31.4445021 124.928328,35.0171575 L124.928328,36.0377838 L124.674991,36.2930794 L116.819174,36.2930794 L116.565838,36.5481896 C116.565838,37.0585955 117.07251,38.5896276 119.099937,38.5896276 C119.86013,38.5896276 120.620323,38.3345173 120.873843,37.8241115 L121.127179,37.5690013 L124.168135,37.5690013 L124.421655,37.8241115 C124.168135,39.355329 122.901085,41.6518771 119.099937,41.6518771 C114.791932,41.6518771 112.764505,38.5896276 112.764505,35.0171575 C112.764505,31.4445021 114.791932,28.3822526 118.8466,28.3822526 Z M80.7632474,28.7508532 L81.0144886,29.0052949 L81.2659124,29.7682503 L81.5171536,29.7682503 C81.5171536,29.7682503 82.0198185,28.7508532 84.2817196,28.7508532 L85.7895319,28.7508532 L86.0409556,29.0052949 L86.0409556,31.5486026 L85.7895319,31.8030443 L84.0302958,31.8030443 C82.0198185,31.8030443 81.2659124,32.8202565 81.2659124,35.1093074 L81.2659124,41.2133199 L81.0144886,41.4675768 L77.9986815,41.4675768 L77.7474403,41.2133199 L77.7474403,29.0052949 L77.9986815,28.7508532 L80.7632474,28.7508532 Z M129.787138,28.7508532 L130.038562,29.0052949 L130.289803,29.7682503 L130.541227,29.7682503 C130.541227,29.7682503 131.043709,28.7508532 133.30561,28.7508532 L134.813423,28.7508532 L135.064846,29.0052949 L135.064846,31.5486026 L134.813423,31.8030443 L133.054369,31.8030443 C131.043709,31.8030443 130.289803,32.8202565 130.289803,35.1093074 L130.289803,41.2133199 L130.038562,41.4675768 L127.022755,41.4675768 L126.771331,41.2133199 L126.771331,29.0052949 L127.022755,28.7508532 L129.787138,28.7508532 Z M103.901801,23.5904437 L104.155648,23.843306 L104.155648,33.9533912 L104.409679,33.9533912 L109.488096,28.8983486 L109.995974,28.6454863 L111.519425,28.6454863 L111.773457,28.8983486 L111.773457,31.4258699 L108.72637,34.4589322 L108.72637,34.7116109 L112.027304,38.5028928 L112.027304,41.0305978 L111.773457,41.2832765 L110.250006,41.2832765 L109.742127,41.0305978 L106.187162,37.2391322 L105.933315,37.2391322 L104.409679,38.7557551 L104.155648,39.2612961 L104.155648,41.0305978 L103.901801,41.2832765 L100.854714,41.2832765 L100.600683,41.0305978 L100.600683,23.843306 L100.854714,23.5904437 L103.901801,23.5904437 Z M69.9146758,31.4349074 C67.880037,31.4349074 67.1170705,32.9611424 67.1170705,34.9963689 C67.1170705,37.0314105 67.880037,38.5576455 69.9146758,38.5576455 C71.9493146,38.5576455 72.7124658,37.0314105 72.7124658,34.9963689 C72.7124658,32.9611424 71.9493146,31.4349074 69.9146758,31.4349074 Z M118.8466,31.4445021 C116.819174,31.4445021 116.565838,33.2308298 116.565838,33.4859401 L116.819174,33.7412357 L120.873843,33.7412357 L121.127179,33.4859401 C121.127179,33.2308298 120.873843,31.4445021 118.8466,31.4445021 Z" id="Combined-Shape" fill="#202024"></path>
            </g>
        </g>
    </g>
</svg>

<svg width="136" height="54" xmlns="http://www.w3.org/2000/svg"><g fill="none" fill-rule="evenodd"><path d="M18.685 50.491l.094.391c.098.463.087.907-.01 1.306-.095.388-.27.732-.504 1.013a2.225 2.225 0 01-.83.621c-.31.132-.656.195-1.026.174a3.109 3.109 0 01-1.057-.259 3.988 3.988 0 01-.945-.583 4.36 4.36 0 01-.775-.834 4.076 4.076 0 01-.539-1.041c-.009-.023-.016-.046-.024-.07l-.02-.069c-.008-.023-.014-.046-.02-.068a3.356 3.356 0 00-.019-.068l-.006-.011-.003-.01-.007-.01-.004-.012c.122.071.244.147.363.23.118.082.233.171.338.27.105.098.202.205.282.322.08.118.146.246.193.387l.017.058.015.056.013.057a1.1 1.1 0 01.012.057c.152.13.308.258.466.375.159.12.32.227.488.321.166.096.338.173.514.23.18.058.363.093.554.1.194.009.35-.024.48-.085a.975.975 0 00.329-.265c.093-.113.172-.245.254-.386.084-.142.168-.294.269-.443l-.033-.076-.031-.08-.028-.08-.022-.083a.618.618 0 01.052-.434c.067-.135.177-.26.307-.379.133-.117.286-.229.437-.33.153-.106.303-.202.426-.292zm5.458-17.686a28.192 28.192 0 00-2.088 3.504 30.22 30.22 0 00-1.663 4.006 31.319 31.319 0 00-1.588 9.262 13.37 13.37 0 01-1.069-1.6 13.97 13.97 0 01-.848-1.779 14.625 14.625 0 01-.607-1.93 15.57 15.57 0 01-.429-3.466c-.006-.466.008-.93.043-1.39a16.578 16.578 0 01.421-2.686zM7.32 37.75l3.402.108a22.76 22.76 0 01.674 1.953 26.008 26.008 0 01.837 3.878c.081.566.143 1.128.187 1.686.045.556.072 1.108.083 1.649.01.541.004 1.074-.02 1.592a40.535 40.535 0 00-1.077-3.386 33.645 33.645 0 00-1.25-2.966c-.44-.91-.9-1.746-1.378-2.504-.472-.75-.96-1.422-1.458-2.01zm-2.556-5.497l1.503 4.423a9.085 9.085 0 00-1.13-.882 6.414 6.414 0 00-1.122-.59 4.635 4.635 0 00-1.1-.295c-.362-.05-.719-.05-1.071 0 .126-.298.259-.551.399-.773.14-.223.29-.413.448-.584.157-.17.326-.32.506-.462.181-.141.374-.276.581-.412.037-.025.076-.049.113-.072a5.74 5.74 0 01.226-.125c.04-.02.078-.036.117-.054.044-.019.086-.037.13-.054l.132-.047a3.186 3.186 0 01.268-.073zm.766 0c.396.015.795.12 1.192.309.402.19.802.467 1.193.824.395.36.783.802 1.155 1.319.374.521.733 1.12 1.068 1.786l-3.178-.046zM0 6.353a106.214 106.214 0 001.3 6.94c.265 1.198.554 2.411.866 3.635a119.25 119.25 0 001.022 3.722 106.402 106.402 0 001.774 5.52c.313.887.633 1.754.958 2.597.327.85.66 1.675.998 2.476a3.664 3.664 0 00-.445-.178 3.058 3.058 0 00-.884-.147c-.145 0-.29.01-.433.033a90.264 90.264 0 01-.973-3.13c-.315-1.073-.62-2.184-.913-3.325a122.72 122.72 0 01-1.608-7.153A132.547 132.547 0 01.312 9.01C.199 8.115.094 7.228 0 6.352zm31.736 17.975a8.77 8.77 0 011.267.074c.42.055.84.146 1.277.278-.75.293-1.485.634-2.202 1.022-.73.393-1.44.837-2.13 1.325a22.456 22.456 0 00-2.04 1.631c-.667.6-1.309 1.246-1.922 1.936l.609-5.398a15.763 15.763 0 011.114-.329 13.555 13.555 0 011.135-.236l.025-.005.024-.003.024-.004.026-.004c.516-.08 1-.15 1.464-.2.459-.05.899-.082 1.329-.087z" fill="#202024"/><path d="M16.956 34.648c.011-.032.025-.064.038-.097l.039-.096.04-.095.04-.097c.368-1.266.96-2.35 1.635-3.505.66-1.13 1.398-2.319 2.08-3.798.661-1.44 1.265-3.146 1.688-5.323.409-2.107.644-4.64.592-7.77-.02-1.348-.05-2.654-.098-3.916a78.629 78.629 0 00-.212-3.602 45.346 45.346 0 00-.39-3.31A30.21 30.21 0 0021.774 0a48.714 48.714 0 011.522 4.67 52.943 52.943 0 011.13 5.217c.2 1.206.383 2.54.525 3.99.144 1.474.248 3.077.284 4.8a66.525 66.525 0 01-.13 5.684 72.822 72.822 0 01-.756 6.702l-.004.003v.007l-7.39 3.575" fill="#494C4F"/><path d="M70.678 28.382c3.052 0 5.595 2.544 5.595 6.614s-2.543 6.614-5.595 6.614c-2.29 0-3.307-1.272-3.307-1.272h-.254v5.851l-.254.255H63.81l-.255-.255V28.891l.255-.254h2.797l.255.254.254.763h.254s1.018-1.272 3.307-1.272zm19.202.369l.255.253 3.058 8.604h.255l3.059-8.604.255-.253h2.294l.255.253v2.53l-4.079 10.123c-1.019 2.531-2.039 4.05-5.607 4.05h-1.274l-.255-.254v-2.53l.255-.253h1.274c1.274 0 1.53-.253 1.784-1.013v-.253l-4.078-9.87v-2.53l.255-.253h2.294zm-35.424-5.345c4.83 0 6.863 2.28 6.863 5.322l-.254.253h-3.05l-.255-.253c0-1.52-.762-2.281-3.558-2.281-2.288 0-3.05.76-3.05 1.774 0 1.52 1.016 2.027 4.575 2.534 3.559.507 6.355 2.027 6.355 5.575 0 2.788-2.034 5.322-7.372 5.322-5.084 0-7.372-2.534-7.372-5.829l.254-.253h3.05l.255.253c0 1.774 1.017 2.788 4.067 2.788 2.288 0 3.559-.76 3.559-2.28 0-1.775-1.017-2.281-4.576-2.788-3.559-.507-6.355-1.774-6.355-5.322 0-2.534 2.034-4.815 6.864-4.815zm64.39 4.976c4.055 0 6.082 3.063 6.082 6.635v1.02l-.253.256h-7.856l-.253.255c0 .51.507 2.042 2.534 2.042.76 0 1.52-.255 1.774-.766l.253-.255h3.041l.254.255c-.254 1.531-1.52 3.828-5.322 3.828-4.308 0-6.335-3.062-6.335-6.635 0-3.572 2.027-6.635 6.082-6.635zm-38.083.369l.251.254.252.763h.251s.503-1.017 2.765-1.017h1.508l.251.254v2.544l-.251.254h-1.76c-2.01 0-2.764 1.017-2.764 3.306v6.104l-.252.255H78l-.252-.255V29.005l.252-.254h2.764zm49.024 0l.252.254.25.763h.252s.503-1.017 2.765-1.017h1.507l.252.254v2.544l-.252.254h-1.759c-2.01 0-2.764 1.017-2.764 3.306v6.104l-.251.255h-3.016l-.252-.255V29.005l.252-.254h2.764zm-25.885-5.16l.254.252v10.11h.254l5.078-5.055.508-.253h1.523l.254.253v2.528l-3.047 3.033v.253l3.301 3.79v2.529l-.254.252h-1.523l-.508-.252-3.555-3.792h-.254l-1.523 1.517-.254.505v1.77l-.254.252h-3.047l-.254-.252V23.843l.254-.253h3.047zm-33.987 7.844c-2.035 0-2.798 1.526-2.798 3.561s.763 3.562 2.798 3.562c2.034 0 2.797-1.527 2.797-3.562s-.763-3.561-2.797-3.561zm48.932.01c-2.028 0-2.281 1.786-2.281 2.04l.253.256h4.055l.253-.255c0-.255-.253-2.041-2.28-2.041z" fill="#202024"/></g></svg>
